X:1
T: Queen Victoria
C:
R:Jig
Q:180
K:G
M:6/8
L:1/16
B2|d4d2 e4d2|B4B2 c4B2|A4A2 A2G2A2|B6 G4B2|d4d2 e4d2|B4B2 d4B2|A4A2 A2B2A2|G6-G4g2|
f4d2 d2e2f2|g6 d4B2|c4a2 B4g2|B2A2^G2 A4g2|f4d2 d2e2f2|g6 e4g2|f4d2 e4^c2|d6 c2B2c2|
d4d2 e4d2|B4B2 c4B2|A4A2 A2G2A2|B6 G4B2|d4d2 e4d2|B4B2 d4B2|A4A2 A2B2A2|G6-G4||
